!!!!SEGMENT: pl-wtm--r-66-n--001_noskowski-zygmunt--piesni-ludowe-op-51-jas-i-kasia.krn
!!!cenid: 18xx:2279
!!!COM: Noskowski, Zygmunt
!!!COM-rismid: pe106604
!!!CDT: 1846/05/02-1909/07/23
!!!CNT: Polish
!!!OTL: Pieśni ludowe op. 51 - Jaś i Kasia
!!!PDT:
!!!AGN: Secular; Song
!!!SMS-siglum: PL-Wtm
!!!SMS-shelfmark: R 66/N
!!!SMS-shelfwork: 001 G
!!!SMS-variant:
!!!SMS-altvar:
!!!NIFC-rismid: 1001096660
!!!system-decoration: {(s1,s2)}
**kern	**dynam	**kern	**text	**text	**dynam
*part2	*part2	*part1	*part1	*part1	*part1
*staff2	*	*staff1	*staff1	*staff1	*
*I"Basy	*	*I"Tenory	*	*	*
*clefF4	*	*clefGv2	*	*	*
*k[b-e-]	*	*k[b-e-]	*	*	*
*B-:	*	*B-:	*	*	*
*M3/4	*	*M3/4	*	*	*
*>[A,A]	*	*>[A,A]	*	*	*
=1	=1	=1	=1	=1	=1
*^	*	*	*	*	*
*	*	*	*^	*	*	*
*>A	*>A	*	*>A	*>A	*	*	*
!!LO:TX:t=P:problem:all\left, middle or right:global
!	!	!	!LO:TX:t=P:problem:w źródle brak przenośnika oktawowego [uwzględniony w kodzie]	!	!	!	!
!	!	!	!LO:TX:a:Bi:t=Cantabile:rj	!	!	!	!
!	!	!LO:DY:b:rj	!	!	!	!	!LO:DY:b:rj
4F/	4BB-\	p	4d/	4B-\	1. Pój-	2 Czte-	p
4F/	4BB-\	.	4d/	4B-\	-dziesz	-ry	.
(<8G/L	4BB-\	.	(<8e-/L	4B-\	ci	mi-	.
8F/J)	.	.	8d/J)	.	.	.	.
=2	=2	=2	=2	=2	=2	=2	=2
(8<E-/L	4C\	.	(>8c/L	(<8A\L	ty	-le	.
8En/J)	.	.	8B-/J)	8G\J)	.	.	.
(>8F/L	(<8FF\L	.	(>8A/L	(<8F\L	przez	la-	.
8BB-/J)	8GG\J)	.	8G/J)	8E-X\J)	.	.	.
4C/	4AA\	.	4F/	4E-\	las,	-su	.
=3	=3	=3	=3	=3	=3	=3	=3
8D/	8D\	.	8B-/	8F\	Ja	Ja	<
8F/	8BB-\	<	8d/	8B-\	ko-	bez	.
4A-X/	4BB-\	.	4d/	4B-\	-ło	po-	.
(<8G/L	4BB-\	[	(>8e-/L	(<8B-\L	la-	-pa-	[
8An/J)	.	.	8g/J)	8e-\J)	.	.	.
=4	=4	=4	=4	=4	=4	=4	=4
(<2B-/	2.BB-\	>	2.f/	2.d\	-su.	-su,	>
4F/)	.	]]	.	.	.	.	]]
=5	=5	=5	=5	=5	=5	=5	=5
4F#X/	4D\	<	4d/	4A\	Krzyk-	Ja-	<
4G/	4GG\	.	4d/	4B-\	-nę	-dę	.
4G/	(>8C\L	[	(>8e-/L	(<8c\L	raz	na	[
.	8D\J)	.	8d/J)	8B-\J)	.	.	.
!!LO:LB:g=original
=6	=6	=6	=6	=6	=6	=6	=6
(>8G/L	(<8E-\L	.	(>8c/L	(<8c\L	dru-	wo-	.
8Fn/J)	8D\J)	.	8B-/J)	8B-\J)	.	.	.
4E-/	(<8C\L	.	(>8A/L	(<8A\L	-gi	-jen-	.
.	8E-\J)	.	8G/J)	8G\J)	.	.	.
4D/	(<8D\L	.	4F/	4F\	raz,	-kę	.
.	8BB-\J)	.	.	.	.	.	.
=7	=7	=7	=7	=7	=7	=7	=7
8E-/	8AA\	.	8c/	8F\	O-	U-	.
!	!	!LO:HP:a	!	!	!	!	!
8E-/	8GG\	>	8c/	8G\	-zwij	-słysz	>
4E-/	4FF\	.	4c/	4A\	się	mnie	.
(<8F/L	4FF\	]	(<8d/L	4A\	Ka-	Ka-	]
8E-/J)	.	.	8c/J)	.	.	.	.
=8	=8	=8	=8	=8	=8	=8	=8
2.D/	2.BB-\	.	2.B-/	2.F\	-siu.	-siu.	.
=9	=9	=9	=9	=9	=9	=9	=9
(<8F/L	4BB-\	.	(<8d/L	4B-\	Ka-	Ka-	.
8A-X/J)	.	.	8f/J)	.	.	.	.
(<8G/L	4BB-\	.	(<8e-/L	4B-\	-sia	-sia	.
8E-/J)	.	.	8c/J)	.	.	.	.
4F/	4BB-\	.	4d/	4B-\	u-	u-	.
=10	=10	=10	=10	=10	=10	=10	=10
!	!	!	!	!	!	!	!LO:HP:b
4A-X/	(>8F\L	.	(<8d/L	4B-\	-sły-	-sły-	<
.	8D\J)	.	8f/J)	.	.	.	.
(<8G/L	4E-\	<	(>8e-/L	(<8B-\L	-sza-	-sza-	.
8F/J)	.	.	8c/J)	8An\J)	.	.	.
4F/	4D\	.	4B-/	4B-\	-ła,	-ła,	.
=11	=11	=11	=11	=11	=11	=11	=11
!	!	!LO:DY:b:rj	!	!	!	!	!LO:DY:b:rj
8G/	8C\	f	8e-/	8B-\	Gło-	Rącz-	f
8An/	8C\	.	8g/	8e-\	-sem	-ki	.
!	!	!	!LO:N:vis=2.	!LO:N:vis=2.	!	!	!
2B-/	2D\	.	2f/	2d\	za-	za-	.
!!LO:LB:g=original
=12	=12	=12	=12	=12	=12	=12	=12
!	!	!LO:DY:b:rj	!	!	!	!	!LO:DY:b:rj
8B-/	8GG\	p	8e-/	8e-\	-wo-	-ła-	p
8c/	8AA\	.	8g/	8e-\	-ła-	-ma-	.
2d/	2BB-\	.	2f/	2d\	-ła:	-ła:	.
=13	=13	=13	=13	=13	=13	=13	=13
4F/	4AA-X\	<	4d/	4B-\	Nie	Ach!	<
(<8F/L	4GG\	.	(<8d/L	4Bn\	od-	cze-	.
8A-X/J)	.	.	8f/J)	.	.	.	.
(>8G/L	(<8C\L	[	(>8e-/L	(<8c\L	-jeż-	-gom	[
8F/J)	8D\J)	.	8d/J)	8B\J)	.	.	.
=14	=14	=14	=14	=14	=14	=14	=14
4G/	(<8E-\L	.	(>8c/L	(<8c\L	-dżaj	sie-	.
.	8En\J)	.	8B-X/J)	8B-\J)	.	.	.
(>8F/L	(<8F\L	.	(>8A/L	(<8A\L	Ja-	-ro-	.
8E-X/J)	8E-\J)	.	8G/J)	8G\J)	.	.	.
4D/	4D\	.	4F/	4F\	-siu,	-ta	.
=15	=15	=15	=15	=15	=15	=15	=15
8D/	8C\	>	8A/	8F#X\	Bę-	Dziś	>
8D/	8AA\	.	8c/	8F#\	-dę	do-	.
4E-/	4GG\	]]	4c/	4G\	pła-	-cze-	]]
(<8Fn/L	4FFn\	.	(<8d/L	4A\	-ka-	-ka-	.
8E-/J)	.	.	8c/J)	.	.	.	.
=16	=16	=16	=16	=16	=16	=16	=16
2.D/	2.BB-\	.	2.B-/	2.Fn\	-ła.	-ła.	.
*v	*v	*	*	*	*	*	*
*	*	*v	*v	*	*	*
==:|!	==:|!	==:|!	==:|!	==:|!	==:|!
*-	*-	*-	*-	*-	*-
!!title: @{OTL};
!!!RDF**kern: > = above
!!!RDF**kern: < = below
!!!RDF**dynam: > = "dim", fontstyle= "bold-italic"
!!!RDF**dynam: < = "cresc", fontstyle= "bold-italic"
!!!RDF**kern: | = vertical stroke
!!!RDF**kern: N = linked
!!!RDF**kern: i = editorial accidental
!!!EED: Wojciech Jakubiak-Danek
!!!EST: 2021-06-09
!!!URL-scan: http://repozytorium.nifc.pl/skany/pl-wtm-nut--r66n
!!!ONB-nifc: UWAGA: na podstawie partytur z folderu pl-wtm-r66n
!!!ENC: Katarzyna Serwa
!!!END: 2021-05-31
